topics/special-relativity/Latex/images/svg/Tikz_Light_Pulse_Proper_Frame.svg

<?xml version="1.0" encoding="UTF-8"?>
<svg xmlns="http://www.w3.org/2000/svg" xmlns:xlink="http://www.w3.org/1999/xlink" width="147.185pt" height="110.38pt" viewBox="0 0 147.185 110.38" version="1.1">
<defs>
<g>
<symbol overflow="visible" id="glyph0-0">
<path style="stroke:none;" d=""/>
</symbol>
<symbol overflow="visible" id="glyph0-1">
<path style="stroke:none;" d="M 3.890625 -3.734375 C 3.625 -3.71875 3.421875 -3.5 3.421875 -3.28125 C 3.421875 -3.140625 3.515625 -2.984375 3.734375 -2.984375 C 3.953125 -2.984375 4.1875 -3.15625 4.1875 -3.546875 C 4.1875 -4 3.765625 -4.40625 3 -4.40625 C 1.6875 -4.40625 1.3125 -3.390625 1.3125 -2.953125 C 1.3125 -2.171875 2.046875 -2.03125 2.34375 -1.96875 C 2.859375 -1.859375 3.375 -1.75 3.375 -1.203125 C 3.375 -0.953125 3.15625 -0.109375 1.953125 -0.109375 C 1.8125 -0.109375 1.046875 -0.109375 0.8125 -0.640625 C 1.203125 -0.59375 1.453125 -0.890625 1.453125 -1.171875 C 1.453125 -1.390625 1.28125 -1.515625 1.078125 -1.515625 C 0.8125 -1.515625 0.515625 -1.3125 0.515625 -0.859375 C 0.515625 -0.296875 1.09375 0.109375 1.9375 0.109375 C 3.5625 0.109375 3.953125 -1.09375 3.953125 -1.546875 C 3.953125 -1.90625 3.765625 -2.15625 3.640625 -2.265625 C 3.375 -2.546875 3.078125 -2.609375 2.640625 -2.6875 C 2.28125 -2.765625 1.890625 -2.84375 1.890625 -3.296875 C 1.890625 -3.578125 2.125 -4.1875 3 -4.1875 C 3.25 -4.1875 3.75 -4.109375 3.890625 -3.734375 Z M 3.890625 -3.734375 "/>
</symbol>
<symbol overflow="visible" id="glyph0-2">
<path style="stroke:none;" d="M 4.84375 -3.796875 C 4.890625 -3.9375 4.890625 -3.953125 4.890625 -4.03125 C 4.890625 -4.203125 4.75 -4.296875 4.59375 -4.296875 C 4.5 -4.296875 4.34375 -4.234375 4.25 -4.09375 C 4.234375 -4.03125 4.140625 -3.734375 4.109375 -3.546875 C 4.03125 -3.296875 3.96875 -3.015625 3.90625 -2.75 L 3.453125 -0.953125 C 3.421875 -0.8125 2.984375 -0.109375 2.328125 -0.109375 C 1.828125 -0.109375 1.71875 -0.546875 1.71875 -0.921875 C 1.71875 -1.375 1.890625 -2 2.21875 -2.875 C 2.375 -3.28125 2.421875 -3.390625 2.421875 -3.59375 C 2.421875 -4.03125 2.109375 -4.40625 1.609375 -4.40625 C 0.65625 -4.40625 0.296875 -2.953125 0.296875 -2.875 C 0.296875 -2.765625 0.390625 -2.765625 0.40625 -2.765625 C 0.515625 -2.765625 0.515625 -2.796875 0.5625 -2.953125 C 0.84375 -3.890625 1.234375 -4.1875 1.578125 -4.1875 C 1.65625 -4.1875 1.828125 -4.1875 1.828125 -3.875 C 1.828125 -3.625 1.71875 -3.359375 1.65625 -3.171875 C 1.25 -2.109375 1.078125 -1.546875 1.078125 -1.078125 C 1.078125 -0.1875 1.703125 0.109375 2.296875 0.109375 C 2.6875 0.109375 3.015625 -0.0625 3.296875 -0.34375 C 3.171875 0.171875 3.046875 0.671875 2.65625 1.203125 C 2.390625 1.53125 2.015625 1.828125 1.5625 1.828125 C 1.421875 1.828125 0.96875 1.796875 0.796875 1.40625 C 0.953125 1.40625 1.09375 1.40625 1.21875 1.28125 C 1.328125 1.203125 1.421875 1.0625 1.421875 0.875 C 1.421875 0.5625 1.15625 0.53125 1.0625 0.53125 C 0.828125 0.53125 0.5 0.6875 0.5 1.171875 C 0.5 1.671875 0.9375 2.046875 1.5625 2.046875 C 2.578125 2.046875 3.609375 1.140625 3.890625 0.015625 Z M 4.84375 -3.796875 "/>
</symbol>
<symbol overflow="visible" id="glyph0-3">
<path style="stroke:none;" d="M 1.328125 -0.828125 C 1.859375 -1.40625 2.15625 -1.65625 2.515625 -1.96875 C 2.515625 -1.96875 3.125 -2.5 3.484375 -2.859375 C 4.4375 -3.78125 4.65625 -4.265625 4.65625 -4.3125 C 4.65625 -4.40625 4.5625 -4.40625 4.546875 -4.40625 C 4.46875 -4.40625 4.453125 -4.390625 4.390625 -4.296875 C 4.09375 -3.8125 3.890625 -3.65625 3.65625 -3.65625 C 3.40625 -3.65625 3.296875 -3.8125 3.140625 -3.984375 C 2.953125 -4.203125 2.78125 -4.40625 2.453125 -4.40625 C 1.703125 -4.40625 1.25 -3.484375 1.25 -3.265625 C 1.25 -3.21875 1.28125 -3.15625 1.359375 -3.15625 C 1.453125 -3.15625 1.46875 -3.203125 1.5 -3.265625 C 1.6875 -3.734375 2.265625 -3.734375 2.34375 -3.734375 C 2.546875 -3.734375 2.734375 -3.671875 2.96875 -3.59375 C 3.375 -3.4375 3.484375 -3.4375 3.734375 -3.4375 C 3.375 -3.015625 2.546875 -2.296875 2.359375 -2.140625 L 1.453125 -1.296875 C 0.78125 -0.625 0.421875 -0.0625 0.421875 0.015625 C 0.421875 0.109375 0.53125 0.109375 0.546875 0.109375 C 0.625 0.109375 0.640625 0.09375 0.703125 -0.015625 C 0.9375 -0.375 1.234375 -0.640625 1.5625 -0.640625 C 1.78125 -0.640625 1.890625 -0.546875 2.140625 -0.265625 C 2.296875 -0.046875 2.484375 0.109375 2.765625 0.109375 C 3.765625 0.109375 4.34375 -1.15625 4.34375 -1.421875 C 4.34375 -1.46875 4.296875 -1.53125 4.21875 -1.53125 C 4.125 -1.53125 4.109375 -1.46875 4.078125 -1.390625 C 3.84375 -0.75 3.203125 -0.5625 2.875 -0.5625 C 2.6875 -0.5625 2.5 -0.625 2.296875 -0.6875 C 1.953125 -0.8125 1.796875 -0.859375 1.59375 -0.859375 C 1.578125 -0.859375 1.421875 -0.859375 1.328125 -0.828125 Z M 1.328125 -0.828125 "/>
</symbol>
<symbol overflow="visible" id="glyph0-4">
<path style="stroke:none;" d="M 3.328125 -3.015625 C 3.390625 -3.265625 3.625 -4.1875 4.3125 -4.1875 C 4.359375 -4.1875 4.609375 -4.1875 4.8125 -4.0625 C 4.53125 -4 4.34375 -3.765625 4.34375 -3.515625 C 4.34375 -3.359375 4.453125 -3.171875 4.71875 -3.171875 C 4.9375 -3.171875 5.25 -3.34375 5.25 -3.75 C 5.25 -4.265625 4.671875 -4.40625 4.328125 -4.40625 C 3.75 -4.40625 3.40625 -3.875 3.28125 -3.65625 C 3.03125 -4.3125 2.5 -4.40625 2.203125 -4.40625 C 1.171875 -4.40625 0.59375 -3.125 0.59375 -2.875 C 0.59375 -2.765625 0.703125 -2.765625 0.71875 -2.765625 C 0.796875 -2.765625 0.828125 -2.796875 0.84375 -2.875 C 1.1875 -3.9375 1.84375 -4.1875 2.1875 -4.1875 C 2.375 -4.1875 2.71875 -4.09375 2.71875 -3.515625 C 2.71875 -3.203125 2.546875 -2.546875 2.1875 -1.140625 C 2.03125 -0.53125 1.671875 -0.109375 1.234375 -0.109375 C 1.171875 -0.109375 0.953125 -0.109375 0.734375 -0.234375 C 0.984375 -0.296875 1.203125 -0.5 1.203125 -0.78125 C 1.203125 -1.046875 0.984375 -1.125 0.84375 -1.125 C 0.53125 -1.125 0.296875 -0.875 0.296875 -0.546875 C 0.296875 -0.09375 0.78125 0.109375 1.21875 0.109375 C 1.890625 0.109375 2.25 -0.59375 2.265625 -0.640625 C 2.390625 -0.28125 2.75 0.109375 3.34375 0.109375 C 4.375 0.109375 4.9375 -1.171875 4.9375 -1.421875 C 4.9375 -1.53125 4.859375 -1.53125 4.828125 -1.53125 C 4.734375 -1.53125 4.71875 -1.484375 4.6875 -1.421875 C 4.359375 -0.34375 3.6875 -0.109375 3.375 -0.109375 C 2.984375 -0.109375 2.828125 -0.421875 2.828125 -0.765625 C 2.828125 -0.984375 2.875 -1.203125 2.984375 -1.640625 Z M 3.328125 -3.015625 "/>
</symbol>
<symbol overflow="visible" id="glyph0-5">
<path style="stroke:none;" d="M 0.875 -0.59375 C 0.84375 -0.4375 0.78125 -0.203125 0.78125 -0.15625 C 0.78125 0.015625 0.921875 0.109375 1.078125 0.109375 C 1.203125 0.109375 1.375 0.03125 1.453125 -0.171875 C 1.46875 -0.203125 1.796875 -1.5625 1.84375 -1.75 C 1.921875 -2.078125 2.109375 -2.765625 2.15625 -3.046875 C 2.203125 -3.171875 2.484375 -3.640625 2.71875 -3.859375 C 2.796875 -3.921875 3.09375 -4.1875 3.515625 -4.1875 C 3.78125 -4.1875 3.921875 -4.0625 3.9375 -4.0625 C 3.640625 -4.015625 3.421875 -3.78125 3.421875 -3.515625 C 3.421875 -3.359375 3.53125 -3.171875 3.796875 -3.171875 C 4.0625 -3.171875 4.34375 -3.40625 4.34375 -3.765625 C 4.34375 -4.109375 4.03125 -4.40625 3.515625 -4.40625 C 2.875 -4.40625 2.4375 -3.921875 2.25 -3.640625 C 2.15625 -4.09375 1.796875 -4.40625 1.328125 -4.40625 C 0.875 -4.40625 0.6875 -4.015625 0.59375 -3.84375 C 0.421875 -3.5 0.296875 -2.90625 0.296875 -2.875 C 0.296875 -2.765625 0.390625 -2.765625 0.40625 -2.765625 C 0.515625 -2.765625 0.515625 -2.78125 0.578125 -3 C 0.75 -3.703125 0.953125 -4.1875 1.3125 -4.1875 C 1.46875 -4.1875 1.609375 -4.109375 1.609375 -3.734375 C 1.609375 -3.515625 1.578125 -3.40625 1.453125 -2.890625 Z M 0.875 -0.59375 "/>
</symbol>
<symbol overflow="visible" id="glyph1-0">
<path style="stroke:none;" d=""/>
</symbol>
<symbol overflow="visible" id="glyph1-1">
<path style="stroke:none;" d="M 3.59375 -2.21875 C 3.59375 -2.984375 3.5 -3.546875 3.1875 -4.03125 C 2.96875 -4.34375 2.53125 -4.625 1.984375 -4.625 C 0.359375 -4.625 0.359375 -2.71875 0.359375 -2.21875 C 0.359375 -1.71875 0.359375 0.140625 1.984375 0.140625 C 3.59375 0.140625 3.59375 -1.71875 3.59375 -2.21875 Z M 1.984375 -0.0625 C 1.65625 -0.0625 1.234375 -0.25 1.09375 -0.8125 C 1 -1.21875 1 -1.796875 1 -2.3125 C 1 -2.828125 1 -3.359375 1.09375 -3.734375 C 1.25 -4.28125 1.6875 -4.4375 1.984375 -4.4375 C 2.359375 -4.4375 2.71875 -4.203125 2.84375 -3.796875 C 2.953125 -3.421875 2.96875 -2.921875 2.96875 -2.3125 C 2.96875 -1.796875 2.96875 -1.28125 2.875 -0.84375 C 2.734375 -0.203125 2.265625 -0.0625 1.984375 -0.0625 Z M 1.984375 -0.0625 "/>
</symbol>
</g>
<clipPath id="clip1">
  <path d="M 0 0 L 147.183594 0 L 147.183594 110.378906 L 0 110.378906 Z M 0 0 "/>
</clipPath>
<clipPath id="clip2">
  <path d="M 6 69 L 58 69 L 58 110.378906 L 6 110.378906 Z M 6 69 "/>
</clipPath>
<clipPath id="clip3">
  <path d="M 16 105 L 22 105 L 22 110.378906 L 16 110.378906 Z M 16 105 "/>
</clipPath>
<clipPath id="clip4">
  <path d="M 35 5 L 147.183594 5 L 147.183594 92 L 35 92 Z M 35 5 "/>
</clipPath>
<clipPath id="clip5">
  <path d="M 143 11 L 147.183594 11 L 147.183594 16 L 143 16 Z M 143 11 "/>
</clipPath>
</defs>
<g id="surface1">
<g clip-path="url(#clip1)" clip-rule="nonzero">
<path style=" stroke:none;fill-rule:nonzero;fill:rgb(100%,89.411926%,78.431702%);fill-opacity:1;" d="M 0 110.378906 L 147.183594 110.378906 L 147.183594 0 L 0 0 Z M 0 110.378906 "/>
</g>
<g style="fill:rgb(0%,0%,100%);fill-opacity:1;">
  <use xlink:href="#glyph0-1" x="50.378" y="90.022"/>
</g>
<g style="fill:rgb(0%,0%,100%);fill-opacity:1;">
  <use xlink:href="#glyph1-1" x="55.048" y="91.516"/>
</g>
<path style="fill:none;stroke-width:0.79701;stroke-linecap:butt;stroke-linejoin:miter;stroke:rgb(0%,0%,100%);stroke-opacity:1;stroke-miterlimit:10;" d="M -0.00071875 0.0019375 L 54.761 0.0019375 " transform="matrix(1,0,0,-1,46.614,80.291)"/>
<path style="fill:none;stroke-width:0.79701;stroke-linecap:round;stroke-linejoin:round;stroke:rgb(0%,0%,100%);stroke-opacity:1;stroke-miterlimit:10;" d="M -2.551644 3.111312 C -2.082894 1.244125 -1.047738 0.361312 -0.0008625 0.0019375 C -1.047738 -0.361344 -2.082894 -1.244156 -2.551644 -3.111344 " transform="matrix(1,0,0,-1,101.7743,80.291)"/>
<g style="fill:rgb(0%,0%,100%);fill-opacity:1;">
  <use xlink:href="#glyph0-2" x="89.099" y="88.299"/>
</g>
<g style="fill:rgb(0%,0%,100%);fill-opacity:1;">
  <use xlink:href="#glyph1-1" x="93.984" y="89.794"/>
</g>
<path style="fill:none;stroke-width:0.79701;stroke-linecap:butt;stroke-linejoin:miter;stroke:rgb(0%,0%,100%);stroke-opacity:1;stroke-miterlimit:10;" d="M -0.00071875 0.0019375 L -0.00071875 54.763656 " transform="matrix(1,0,0,-1,46.614,80.291)"/>
<path style="fill:none;stroke-width:0.79701;stroke-linecap:round;stroke-linejoin:round;stroke:rgb(0%,0%,100%);stroke-opacity:1;stroke-miterlimit:10;" d="M -2.548988 3.110094 C -2.084144 1.242906 -1.045081 0.364 0.00179375 0.00071875 C -1.045081 -0.362563 -2.084144 -1.245375 -2.548988 -3.112563 " transform="matrix(0,-1,-1,0,46.614,25.1307)"/>
<g style="fill:rgb(0%,0%,100%);fill-opacity:1;">
  <use xlink:href="#glyph0-3" x="33.793" y="32.741"/>
</g>
<g style="fill:rgb(0%,0%,100%);fill-opacity:1;">
  <use xlink:href="#glyph1-1" x="38.426" y="34.235"/>
</g>
<g clip-path="url(#clip2)" clip-rule="nonzero">
<path style="fill:none;stroke-width:0.79701;stroke-linecap:butt;stroke-linejoin:miter;stroke:rgb(0%,0%,100%);stroke-opacity:1;stroke-miterlimit:10;" d="M -0.00071875 0.0019375 L -28.848375 -28.849625 " transform="matrix(1,0,0,-1,46.614,80.291)"/>
</g>
<g clip-path="url(#clip3)" clip-rule="nonzero">
<path style="fill:none;stroke-width:0.79701;stroke-linecap:round;stroke-linejoin:round;stroke:rgb(0%,0%,100%);stroke-opacity:1;stroke-miterlimit:10;" d="M -2.551602 3.111079 C -2.084796 1.246619 -1.046223 0.362727 0.000636402 0.000883892 C -1.046223 -0.360959 -2.084796 -1.244851 -2.548839 -3.112073 " transform="matrix(-0.7071,0.7071,0.7071,0.7071,17.4842,109.4208)"/>
</g>
<g style="fill:rgb(0%,0%,100%);fill-opacity:1;">
  <use xlink:href="#glyph0-4" x="3.321" y="104.489"/>
</g>
<g style="fill:rgb(0%,0%,100%);fill-opacity:1;">
  <use xlink:href="#glyph1-1" x="9.014" y="105.983"/>
</g>
<g clip-path="url(#clip4)" clip-rule="nonzero">
<path style="fill:none;stroke-width:0.79701;stroke-linecap:butt;stroke-linejoin:miter;stroke:rgb(100%,0%,0%);stroke-opacity:1;stroke-dasharray:0.79701,1.99255;stroke-miterlimit:10;" d="M -0.00071875 0.0019375 L 95.178969 63.451156 " transform="matrix(1,0,0,-1,46.614,80.291)"/>
</g>
<path style="fill:none;stroke-width:0.79701;stroke-linecap:round;stroke-linejoin:round;stroke:rgb(100%,0%,0%);stroke-opacity:1;stroke-miterlimit:10;" d="M -2.549838 3.108767 C -2.083942 1.244163 -1.045995 0.364415 0.00169885 -0.000696857 C -1.047072 -0.362576 -2.085004 -1.243425 -2.55087 -3.111287 " transform="matrix(0.83202,-0.55467,-0.55467,-0.83202,142.1232,16.61755)"/>
<path style=" stroke:none;fill-rule:nonzero;fill:rgb(0%,0%,100%);fill-opacity:1;" d="M 51.496094 80.289063 C 51.496094 77.59375 49.308594 75.410156 46.613281 75.410156 C 43.917969 75.410156 41.730469 77.59375 41.730469 80.289063 C 41.730469 82.988281 43.917969 85.171875 46.613281 85.171875 C 49.308594 85.171875 51.496094 82.988281 51.496094 80.289063 Z M 51.496094 80.289063 "/>
<g clip-path="url(#clip5)" clip-rule="nonzero">
<path style=" stroke:none;fill-rule:nonzero;fill:rgb(0%,0%,0%);fill-opacity:1;" d="M 147.1875 13.621094 C 147.1875 12.542969 146.3125 11.667969 145.234375 11.667969 C 144.15625 11.667969 143.28125 12.542969 143.28125 13.621094 C 143.28125 14.699219 144.15625 15.574219 145.234375 15.574219 C 146.3125 15.574219 147.1875 14.699219 147.1875 13.621094 Z M 147.1875 13.621094 "/>
</g>
<g style="fill:rgb(0%,0%,0%);fill-opacity:1;">
  <use xlink:href="#glyph0-5" x="132.471" y="7.61"/>
</g>
<path style="fill:none;stroke-width:0.398;stroke-linecap:butt;stroke-linejoin:miter;stroke:rgb(0%,0%,0%);stroke-opacity:1;stroke-miterlimit:10;" d="M 0.00165625 0.00109375 L 4.771187 0.00109375 " transform="matrix(1,0,0,-1,132.471,9.005)"/>
<g style="fill:rgb(0%,0%,0%);fill-opacity:1;">
  <use xlink:href="#glyph1-1" x="137.243" y="10.101"/>
</g>
</g>
</svg>

<svg xmlns="http://www.w3.org/2000/svg" xmlns:xlink="http://www.w3.org/1999/xlink" width="196.25" height="147.17" viewBox="0 0 147.19 110.38"><defs><symbol id="b" overflow="visible"><path d="M3.9-3.73c-.27.01-.48.23-.48.45 0 .14.1.3.31.3.22 0 .46-.18.46-.57C4.19-4 3.77-4.4 3-4.4c-1.31 0-1.69 1.02-1.69 1.46 0 .78.74.92 1.03.98.52.11 1.04.22 1.04.77 0 .25-.22 1.1-1.43 1.1-.14 0-.9 0-1.14-.54.4.05.64-.25.64-.53 0-.22-.17-.35-.37-.35-.27 0-.56.2-.56.66 0 .56.57.97 1.42.97 1.62 0 2.01-1.2 2.01-1.66 0-.36-.18-.6-.3-.72-.27-.28-.57-.34-1-.42-.37-.08-.76-.15-.76-.6 0-.29.24-.9 1.11-.9.25 0 .75.08.9.46m0 0" style="stroke:none"/></symbol><symbol id="d" overflow="visible"><path d="M4.84-3.8c.05-.14.05-.15.05-.23 0-.17-.14-.27-.3-.27-.09 0-.25.07-.34.2l-.14.55q-.12.38-.2.8l-.46 1.8c-.03.14-.47.84-1.12.84-.5 0-.61-.44-.61-.81q0-.66.5-1.95c.15-.41.2-.52.2-.72a.8.8 0 0 0-.81-.82C.66-4.4.3-2.95.3-2.87c0 .1.1.1.1.1.12 0 .12-.03.16-.18.28-.94.67-1.24 1.02-1.24.08 0 .25 0 .25.32 0 .25-.11.51-.17.7a6 6 0 0 0-.58 2.1C1.08-.2 1.7.1 2.3.1q.58-.02 1-.45a4 4 0 0 1-.64 1.54c-.27.33-.64.63-1.1.63-.14 0-.6-.03-.76-.42.15 0 .3 0 .42-.13a.5.5 0 0 0 .2-.4c0-.32-.26-.35-.36-.35C.83.53.5.7.5 1.17c0 .5.44.88 1.06.88 1.02 0 2.05-.9 2.33-2.03Zm0 0" style="stroke:none"/></symbol><symbol id="e" overflow="visible"><path d="M1.33-.83c.53-.58.83-.83 1.19-1.14 0 0 .6-.53.96-.89.96-.92 1.18-1.4 1.18-1.45 0-.1-.1-.1-.11-.1-.08 0-.1.02-.16.11-.3.49-.5.64-.73.64-.25 0-.36-.15-.52-.32-.19-.22-.36-.43-.69-.43-.75 0-1.2.93-1.2 1.14q0 .1.1.11c.1 0 .12-.04.15-.1.19-.47.77-.47.84-.47q.3.01.63.14c.4.15.51.15.76.15a16 16 0 0 1-1.37 1.3l-.9.84A5 5 0 0 0 .41.02C.42.1.53.1.55.1Q.64.13.7-.02c.24-.35.53-.62.86-.62.22 0 .33.1.58.37.16.22.34.38.63.38 1 0 1.57-1.27 1.57-1.53q0-.1-.12-.11c-.1 0-.11.06-.14.14-.24.64-.88.83-1.2.83Q2.59-.57 2.3-.7c-.35-.12-.5-.17-.7-.17-.02 0-.18 0-.27.03m0 0" style="stroke:none"/></symbol><symbol id="h" overflow="visible"><path d="M3.33-3.02c.06-.25.3-1.17.98-1.17a1 1 0 0 1 .5.13.6.6 0 0 0-.47.54c0 .16.11.35.38.35.22 0 .53-.17.53-.58 0-.52-.58-.66-.92-.66-.58 0-.92.54-1.05.75A1.1 1.1 0 0 0 2.2-4.4C1.17-4.4.6-3.12.6-2.87c0 .1.1.1.12.1q.1 0 .12-.1c.35-1.07 1-1.32 1.35-1.32.19 0 .53.1.53.67 0 .32-.17.97-.53 2.38-.16.6-.52 1.03-.96 1.03-.06 0-.28 0-.5-.12.25-.07.47-.27.47-.55 0-.27-.22-.34-.36-.34-.3 0-.54.25-.54.57 0 .46.48.66.92.66.67 0 1.03-.7 1.05-.75.12.36.48.75 1.07.75 1.04 0 1.6-1.28 1.6-1.53 0-.11-.08-.11-.11-.11-.1 0-.11.05-.14.1C4.36-.33 3.69-.1 3.37-.1c-.39 0-.54-.31-.54-.66 0-.21.04-.43.15-.87Zm0 0" style="stroke:none"/></symbol><symbol id="k" overflow="visible"><path d="m.88-.6-.1.44c0 .18.14.27.3.27.12 0 .3-.08.37-.28.02-.03.35-1.4.4-1.58.07-.33.26-1.02.3-1.3.05-.12.33-.6.57-.8.08-.07.37-.34.8-.34.26 0 .4.13.42.13-.3.04-.52.28-.52.54 0 .16.11.35.38.35.26 0 .54-.24.54-.6 0-.34-.3-.64-.82-.64-.64 0-1.08.49-1.27.77a.9.9 0 0 0-.92-.77c-.46 0-.64.4-.74.57-.17.34-.3.93-.3.96 0 .11.1.11.12.11.1 0 .1-.01.17-.23.17-.7.37-1.19.73-1.19.16 0 .3.08.3.46 0 .21-.03.32-.16.84Zm0 0" style="stroke:none"/></symbol><symbol id="c" overflow="visible"><path d="M3.6-2.22c0-.76-.1-1.33-.41-1.81-.22-.31-.66-.6-1.2-.6C.35-4.62.35-2.71.35-2.21S.36.14 1.98.14C3.6.14 3.6-1.72 3.6-2.22M1.97-.06c-.32 0-.75-.19-.89-.75C1-1.21 1-1.8 1-2.31c0-.52 0-1.05.1-1.42.15-.55.59-.7.88-.7a.9.9 0 0 1 .86.63q.15.57.13 1.49c0 .51 0 1.03-.1 1.47-.14.64-.6.78-.89.78m0 0" style="stroke:none"/></symbol><clipPath id="a"><path d="M0 0h147.18v110.38H0Zm0 0"/></clipPath><clipPath id="f"><path d="M6 69h52v41.38H6Zm0 0"/></clipPath><clipPath id="g"><path d="M16 105h6v5.38h-6Zm0 0"/></clipPath><clipPath id="i"><path d="M35 5h112.18v87H35Zm0 0"/></clipPath><clipPath id="j"><path d="M143 11h4.18v5H143Zm0 0"/></clipPath></defs><g clip-path="url(#a)"><path d="M0 110.38h147.18V0H0Zm0 0" style="stroke:none;fill-rule:nonzero;fill:#ffe4c8;fill-opacity:1"/></g><use xlink:href="#b" x="50.38" y="90.02" style="fill:#00f;fill-opacity:1"/><use xlink:href="#c" x="55.05" y="91.52" style="fill:#00f;fill-opacity:1"/><path d="M0 0h54.76" style="fill:none;stroke-width:.79701;stroke-linecap:butt;stroke-linejoin:miter;stroke:#00f;stroke-opacity:1;stroke-miterlimit:10" transform="matrix(1 0 0 -1 46.61 80.3)"/><path d="M-2.55 3.11C-2.08 1.24-1.05.36 0 .01c-1.05-.37-2.08-1.25-2.55-3.12" style="fill:none;stroke-width:.79701;stroke-linecap:round;stroke-linejoin:round;stroke:#00f;stroke-opacity:1;stroke-miterlimit:10" transform="matrix(1 0 0 -1 101.77 80.3)"/><use xlink:href="#d" x="89.1" y="88.3" style="fill:#00f;fill-opacity:1"/><use xlink:href="#c" x="93.98" y="89.79" style="fill:#00f;fill-opacity:1"/><path d="M0 0v54.76" style="fill:none;stroke-width:.79701;stroke-linecap:butt;stroke-linejoin:miter;stroke:#00f;stroke-opacity:1;stroke-miterlimit:10" transform="matrix(1 0 0 -1 46.61 80.3)"/><path d="M-2.55 3.11C-2.08 1.24-1.05.36 0 .01c-1.05-.37-2.08-1.26-2.55-3.12" style="fill:none;stroke-width:.79701;stroke-linecap:round;stroke-linejoin:round;stroke:#00f;stroke-opacity:1;stroke-miterlimit:10" transform="matrix(0 -1 -1 0 46.61 25.13)"/><use xlink:href="#e" x="33.79" y="32.74" style="fill:#00f;fill-opacity:1"/><use xlink:href="#c" x="38.43" y="34.23" style="fill:#00f;fill-opacity:1"/><g clip-path="url(#f)"><path d="m0 0-28.85-28.85" style="fill:none;stroke-width:.79701;stroke-linecap:butt;stroke-linejoin:miter;stroke:#00f;stroke-opacity:1;stroke-miterlimit:10" transform="matrix(1 0 0 -1 46.61 80.3)"/></g><g clip-path="url(#g)"><path d="M-2.55 3.11C-2.08 1.25-1.05.36 0 .01c-1.05-.37-2.08-1.25-2.55-3.12" style="fill:none;stroke-width:.79701;stroke-linecap:round;stroke-linejoin:round;stroke:#00f;stroke-opacity:1;stroke-miterlimit:10" transform="rotate(-45 140.82 33.6)scale(-1 1)"/></g><use xlink:href="#h" x="3.32" y="104.49" style="fill:#00f;fill-opacity:1"/><use xlink:href="#c" x="9.01" y="105.98" style="fill:#00f;fill-opacity:1"/><g clip-path="url(#i)"><path d="m0 0 95.18 63.45" style="fill:none;stroke-width:.79701;stroke-linecap:butt;stroke-linejoin:miter;stroke:red;stroke-opacity:1;stroke-dasharray:.79701,1.99255;stroke-miterlimit:10" transform="matrix(1 0 0 -1 46.61 80.3)"/></g><path d="M-2.55 3.1C-2.08 1.25-1.05.37 0 0c-1.05-.36-2.09-1.24-2.55-3.11" style="fill:none;stroke-width:.79701;stroke-linecap:round;stroke-linejoin:round;stroke:red;stroke-opacity:1;stroke-miterlimit:10" transform="rotate(-33.69 98.5 -226.4)scale(.99996 -.99996)"/><path d="M51.5 80.29a4.88 4.88 0 1 0-9.77 0 4.88 4.88 0 0 0 9.77 0m0 0" style="stroke:none;fill-rule:nonzero;fill:#00f;fill-opacity:1"/><g clip-path="url(#j)"><path d="M147.19 13.62a1.95 1.95 0 1 0-3.91 0 1.95 1.95 0 0 0 3.9 0m0 0" style="stroke:none;fill-rule:nonzero;fill:#000;fill-opacity:1"/></g><use xlink:href="#k" x="132.47" y="7.61" style="fill:#000;fill-opacity:1"/><path d="M0 0h4.77" style="fill:none;stroke-width:.398;stroke-linecap:butt;stroke-linejoin:miter;stroke:#000;stroke-opacity:1;stroke-miterlimit:10" transform="matrix(1 0 0 -1 132.47 9)"/><use xlink:href="#c" x="137.24" y="10.1" style="fill:#000;fill-opacity:1"/></svg>
